X:1
T:Crossing the bar - Barnby
%%score [ ( 1 2 ) ( 3 4 ) ]
L:1/8
Q:1/4=120
M:4/4
K:C
V:1 treble nm="S A" snm="S A"
V:2 treble 
V:3 bass nm="T B" snm="T B"
V:4 bass 
V:1
!mp!"^Alfred, Lord Tennyson""^Crossing the bar" E2 EE G3 G | C6 C2 | F2 F2 A3 A | %3
 D4 z DE"^Sir Joseph Barnby\n(1838-96)"F | G2 c2 c2 B2 | B3 A A2 D2 | F3 F E2 D2 | C4- CEEE | %8
 E2 E2 EEFE | E6 A2 | c3 c B2 A2 | (^G4 =G)GAG | e3 d c2 B2 | A3 G (F2 D2) | G3 C (D2 E2) | C8 | %16
 F2 FF E3 E | D6 D2 | G3 G F2 F2 | E4 z EFG | A2 A2 _B2 A2 | G3 F F2 G2 | E4 ^F4 | G6 G2 | %24
 G2 G2 G2 G2 | G2 B2 A2 G2 | G2 c2 B2 A2 | G4 ^F4 | G6 G2 | f2 e2 d2 c2 | B2 A2 G2 F2 | %31
 E2 G2 F2 A,2 | C4 D4 | C8 |] %34
V:2
 C2 CC B,3 B, | C6 C2 | A,2 A,2 C3 C | B,4 z B,B,B, | C2 C2 D2 D2 | D3 C C2 C2 | C3 C B,2 B,2 | %7
w: Sun- set and eve- ning|star, And|one clear call for|me! And may there|be no moan- ing|of the bar, When|I put out to|
 C4- CCCC | D2 D2 DDDD | C6 E2 | E3 E ^D2 D2 | (E4 F)FFF | E3 F G2 ^G2 | A2 E2 (D2 A,2) | %14
w: sea, * But such a|tide as mov- ing seems a-|sleep, Too|full for sound and|foam, * When that which|drew from out the|bound- less deep *|
 C3 G, (A,2 B,2) | C8 | C2 CC C3 C | C6 C2 | C3 C C2 C2 | C4 z CCC | C2 C2 ^C2 C2 | D3 D D2 D2 | %22
w: Turns a- gain *|home.|Twi- light and eve- ning|bell, And|af- ter that the|dark! And may there|be no sad- ness|of fare- well When|
 C4 D4 | G6 G,2 | B,2 C2 D2 E2 | F2 F2 F2 F2 | E2 E2 E2 E2 | E4 ^D4 | (E4 !courtesy!=F2) G2 | %29
w: I em-|bark; For,|tho' from out our|bourne of Time and|Place The flood may|bear me|far, * I|
 A2 G2 F2 G2 | G2 F2 E2 D2 | C2 ^C2 A,2 A,2 | G,4 B,4 | C8 |] %34
w: hope to see my|Pi- lot face to|face When I have|crost the|bar.|
V:3
 G,2 G,G, F,3 F, | E,6 E,2 | F,2 F,2 D,3 D, | G,4 z G,G,G, | G,2 G,2 ^G,2 G,2 | ^G,3 A, A,2 A,2 | %6
 A,3 A, G,2 F,2 | E,4- E,G,G,G, | ^G,2 G,2 G,G,G,G, | A,6 C2 | A,3 A, B,2 B,2 | B,4- B,B,B,B, | %12
 G,3 B, C2 D2 | ^C2 A,2 (A,2 F,2) | E,3 E, F,4 | E,8 | A,2 A,A, G,3 G, | F,6 F,2 | %18
 _B,3 B, A,2 A,2 | G,4 z CC_B, | A,2 A,2 G,2 A,2 | _B,3 A, A,2 G,2 | G,4 C4 | B,6 G,2 | %24
 G,2 A,2 B,2 C2 | D2 B,2 C2 D2 | G,2 A,2 G,2 A,2 | B,4 B,4 | (B,2 G,2 A,2) B,2 | C2 G,2 B,2 C2 | %30
 C2 C2 _B,2 A,2 | G,2 E,2 F,2 F,2 | E,4 F,4 | E,8 |] %34
V:4
 C,2 C,C, G,,3 G,, | A,,6 A,,2 | D,2 D,2 F,,3 F,, | G,,4 z G,G,F, | E,2 E,2 E,2 E,2 | %5
w: |||||
 F,3 F, F,2 F,2 | D,3 D, G,,2 G,,2 | C,4- C,C,C,C, | B,,2 B,,2 E,E,E,E, | A,6 G,2 | %10
w: |||||
 ^F,3 F, B,2 B,2 | (E,4 D,)D,!courtesy!=G,G, | C,3 D, E,2 E,2 | A,2 ^C,2 (D,2 F,,2) | %14
w: ||||
 G,,3 G,, G,,4 | C,4 !>!C,4- | C,4 C,2 C,2 | C,3 C, C,2 C,2 | C,3 C, C,2 C,2 | C,4 z C,D,E, | %20
w: |* Twi­|* light and|eve- ning bell, And|||
 F,2 F,2 E,2 E,2 | D,3 D, D,2 !courtesy!=B,,2 | C,4 A,,4 | G,,6 G,2 | F,2 E,2 D,2 C,2 | %25
w: |||||
 B,,2 G,,2 A,,2 B,,2 | C,2 A,,2 B,,2 C,2 | B,,4 B,,4 | (E,4 D,2) D,2 | C,2 C,2 D,2 E,2 | %30
w: |||||
 F,2 F,2 ^C,2 D,2 | G,,2 A,,2 D,2 F,,2 | G,,4 G,,4 | C,8 |] %34
w: ||||

